X: 29908
T: O'Rourke's
R: reel
M: 4/4
K: Amixolydian
ed|cAAe fded|cAeA dfed|cAAe fd (3Bcd|fage d2 ed|
cAAe fded|cAeA dfed|cAAe fd (3Bcd|fage d2 ef||
g2fg e3f|gfed eaaf|gefd ed (3Bcd|fage d2ef|
g2fg e3f|gfed ea a2|bgaf gfed|eaaf gfed||

